X: 21714
T: Kimmel's
R: jig
M: 6/8
K: Bminor
C|:DB,A, B,DE|FdB AFE|F2F EFE|DEF G2G|
DB,A, B,DE|FdB AFE|F2F EDE|FB,B, B,3:|
A,|A,DF A2A|ABA AFE|DFA B2B|BdB AFE|
D2D EDE|FdB AFE|F2F EDE|FB,B, B,3:|

